svgs/thin/map.svg

<svg xmlns="http://www.w3.org/2000/svg" viewBox="0 0 576 512"><!--! Font Awesome Pro 6.1.1 by @fontawesome - https://fontawesome.com License - https://fontawesome.com/license (Commercial License) Copyright 2022 Fonticons, Inc. --><path d="M181.3 32.48C182.9 31.89 184.7 31.84 186.4 32.35L391.8 95.56L533.1 44.19C553.9 36.6 576 52.06 576 74.26V391.2C576 404.6 567.6 416.7 554.9 421.3L394.7 479.5C393.1 480.1 391.3 480.2 389.6 479.6L184.2 416.4L42.94 467.8C22.07 475.4 0 459.9 0 437.7V120.8C0 107.4 8.418 95.34 21.06 90.74L181.3 32.48zM16 120.8V437.7C16 448.8 27.03 456.6 37.47 452.8L176 402.4V51.42L26.53 105.8C20.21 108.1 16 114.1 16 120.8V120.8zM384 109.9L192 50.83V402.1L384 461.2V109.9zM400 460.6L549.5 406.2C555.8 403.9 560 397.9 560 391.2V74.26C560 63.16 548.1 55.43 538.5 59.23L400 109.6V460.6z"/></svg>

<svg xmlns="http://www.w3.org/2000/svg" viewBox="0 0 576 512"><!--! Font Awesome Pro 6.4.2 by @fontawesome - https://fontawesome.com License - https://fontawesome.com/license (Commercial License) Copyright 2023 Fonticons, Inc. --><path d="M181.3 32.5c1.6-.6 3.4-.6 5.1-.1L391.8 95.6 533.1 44.2c20.9-7.6 42.9 7.9 42.9 30.1V391.2c0 13.5-8.4 25.5-21.1 30.1L394.7 479.5c-1.6 .6-3.4 .6-5.1 .1L184.2 416.4 42.9 467.8C22.1 475.4 0 459.9 0 437.7V120.8c0-13.5 8.4-25.5 21.1-30.1L181.3 32.5zM26.5 105.8c-6.3 2.3-10.5 8.3-10.5 15V437.7c0 11.1 11 18.8 21.5 15L176 402.4V51.4L26.5 105.8zM384 461.2V109.9L192 50.8V402.1l192 59.1zm16-.6l149.5-54.4c6.3-2.3 10.5-8.3 10.5-15V74.3c0-11.1-11-18.8-21.5-15L400 109.6v351z"/></svg>
